X:1
T:Billings
T:Golgotha
%%score [ 1 2 3 4 ]
L:1/8
M:2/2
K:Ab
V:1 treble nm="Soprano" snm="S"
V:2 alto nm="Alto" snm="A"
V:3 treble-8 nm="Tenor" snm="T"
V:4 bass nm="Bass" snm="B"
V:1
 A8- | A4 c2 c2 | c8 | A4 c2 B2 | A8 | A4 A2 B2 | A4 c4 | c8 | A4 c2 c2 | c8 | c4 B2 (cd) | e8 | %12
 f4 f2 c2 | d4 c4 | c8 | z4 c4 | A2 G2 A2 A2 | c2 c2 c2 cB | A2 d2 c2 B2 | B6 (c>B) | %20
 A2 (A>B) c2 (c>B) | (c>d)(cB) c2 (c>B) | (A>B)(cd) c2 c2 | c8 | z4 c4 | A2 G2 A2 A2 | %26
 c2 c2 c2 cB | A2 d2 c2 B2 | B6 (c>B) | A2 (A>B) c2 (c>B) | (c>d)(cB) c2 (c>B) | (A>B)(cd) c2 c2 | %32
 c8 |] %33
V:2
 F8- | F4 A2 G2 | A8 | F4 E2 E2 | F8 | F4 E2 E2 | F4 A4 | G8 | F4 A2 G2 | A8 | A4 G2 G2 | A8 | %12
 A4 A2 F2 | (G2 F2) =E4 | F8 | z4 F4 | F2 =E2 F2 F2 | A2 A2 A2 G2 | (F>A) G2 F2 F2 | G6 G2 | %20
 F2 F2 A2 G2 | (F>A)(GF) G2 G2 | F2 F2 =E2 E2 | F8 | z4 F4 | F2 =E2 F2 F2 | A2 A2 A2 G2 | %27
 (F>A) G2 F2 F2 | G6 G2 | F2 F2 A2 G2 | (F>A)(GF) G2 G2 | F2 F2 =E2 E2 | F8 |] %33
V:3
 c8- | c4 f2 =e2 | f8 | c4 A2 B2 | c8 | c4 c2 B2 | c4 f4 | e8 | c4 f2 =e2 | f8 | e4 e2 d2 | c8 | %12
 c4 d2 c2 | (B2 A2) G4 | F8 | z4 c4 | c2 c2 c2 c2 | f2 f2 f2 (ed) | c2 B2 c2 d2 | e6 (e>d) | %20
 c2 c2 f2 (ed) | (c>B)(cd) e2 (ed) | (e>d)(cd) A2 G2 | F8 | z4 c4 | c2 c2 c2 c2 | f2 f2 f2 (ed) | %27
 c2 B2 c2 d2 | e6 (e>d) | c2 c2 f2 (ed) | (c>B)(cd) e2 (ed) | (e>d)(cd) A2 G2 | F8 |] %33
V:4
 [F,,-F,]8 | [F,,F,]4 [F,,F,]2 C,2 | [F,,F,]8 | [F,,F,]4 [A,,A,]2 [G,,G,]2 | [F,,F,]8 | %5
 [F,,F,]4 [A,,A,]2 [G,,G,]2 | [F,,F,]4 [F,,F,]4 | C,8 | [F,,F,]4 [F,,F,]2 C,2 | [F,,F,]8 | %10
 [A,,A,]4 E,2 E,2 | [A,,A,]8 | [F,,F,]4 [F,,F,]2 [F,,F,]2 | B,,4 C,4 | F,,8 | z4 E,4 | %16
 E,2 E,2 E,2 E,2 | A,2 A,2 A,2 (G,F,) | E,2 D,2 E,2 F,2 | G,6 (G,>F,) | C,2 C,2 A,2 (G,>F,) | %21
 (E,>D,)(E,F,) G,2 (G,F,) | (E,F,)(E,D,) C,2 B,,2 | A,,8 | z4 E,4 | E,2 E,2 E,2 E,2 | %26
 A,2 A,2 A,2 (G,F,) | E,2 D,2 E,2 F,2 | G,6 (G,>F,) | C,2 C,2 A,2 (G,>F,) | %30
 (E,>D,)(E,F,) G,2 (G,F,) | (E,F,)(E,D,) C,2 B,,2 | A,,8 |] %33

